assets/symbols/mulberry/pet_brush.svg

<svg height="850.394" viewBox="0 0 850.394 850.394" width="850.394" xmlns="http://www.w3.org/2000/svg"><g fill="#abda4d"><path d="m515.22 475.72c11.15 12.79 23.79 29.101 19.601 33.05-7.15 6.721-23.99 12.15-42.86 14.561-79.76 10.21-139.29 61.61-165.47 110.9 0 0-15.49 33.6-30.96 29.119-7.11-2.069-14.72-9.319-20.87-16.569l.01-.011c.26-47.649 52.88-100.92 94.05-125.68 49.429-29.75 87.709-45.19 146.499-45.37z"/><path d="m368.72 521.09c-41.17 24.76-93.79 78.03-94.05 125.68l-.01.011c-7.25-8.521-12.47-17.04-12.47-17.04l-195.23-266.591s-18.21-18.78 15.47-59.36c33.93-40.89 111.91-88.49 164.29-98.58 0 0 28.87-10.36 63.69 33.61l81.36 94.54 45.52 52.91 63.01 73.22s7.09 7.25 14.92 16.229c-58.79.181-97.07 15.621-146.5 45.371z"/><path d="m773.38 200.81c23.21 21.85 27.97 54.34-10.13 66.65-38.09 12.32-188.09 56.01-236.9 75.05-48.819 19.05-87.14 42.11-87.14 42.11l-1.92 1.65-45.52-52.91 2.85-2.45s65.06-35.44 82.91-52.25c14.59-13.72 133.989-64.8 194.779-89.77-26.109 21.93-1.89 40.78 24.061 33.97 24.76-6.49 54.81-14.67 56.89-38.38l.641-.84c6.239 4.71 12.509 10.61 19.479 17.17z"/></g><g fill="none"><g stroke="#231f20" stroke-width="21"><path d="m274.66 646.78c-7.25-8.521-12.47-17.04-12.47-17.04l-195.23-266.59s-18.21-18.78 15.47-59.36c33.93-40.89 111.91-88.49 164.29-98.58 0 0 28.87-10.36 63.69 33.61l81.36 94.54 45.52 52.91 63.01 73.22s7.09 7.25 14.92 16.229c11.15 12.79 23.79 29.101 19.601 33.05-7.15 6.721-23.99 12.15-42.86 14.561-79.76 10.21-139.29 61.61-165.47 110.9 0 0-15.49 33.6-30.96 29.119-7.111-2.069-14.721-9.319-20.871-16.569z"/><path d="m274.67 646.77c.26-47.649 52.88-100.92 94.05-125.68 49.43-29.75 87.709-45.189 146.5-45.37m-120.6-144.81s65.06-35.44 82.91-52.25c14.59-13.72 133.989-64.8 194.779-89.77 13.641-5.61 24.341-9.9 30.23-12.16 22.49-8.62 36.82-4.08 51.36 6.91 6.239 4.71 12.51 10.61 19.479 17.17 23.21 21.85 27.97 54.34-10.13 66.65-38.09 12.32-188.09 56.01-236.9 75.05-48.819 19.05-87.14 42.11-87.14 42.11m-182.968-160.37-7.14 50.41m33.12-25.97-7.14 50.41m34.03-25.1-7.14 50.4m33.12-25.96-7.15 50.4m29.06-14.47-7.14 50.41m33.11-25.97-7.14 50.4m29.28-20.04-7.14 50.4m33.11-25.97-7.14 50.41m-215.67-222.7-7.14 50.41m33.11-25.97-7.14 50.41m34.04-25.1-7.14 50.4m33.11-25.97-7.14 50.41m29.06-14.47-7.15 50.4m33.12-25.96-7.14 50.4m29.28-20.05-7.15 50.41m33.12-25.97-7.14 50.41m-203.91-205.69-7.14 50.41m33.12-25.97-7.15 50.4m34.04-25.1-7.14 50.41m33.11-25.97-7.14 50.41m29.06-14.48-7.14 50.41m33.11-25.97-7.14 50.41m29.28-20.05-7.14 50.4m33.11-25.96-7.14 50.41m-216.19-220.98-7.15 50.41m33.12-25.97-7.14 50.4m34.03-25.1-7.14 50.41m33.12-25.97-7.15 50.41m29.06-14.47-7.14 50.4m33.11-25.97-7.14 50.41m29.28-20.05-7.14 50.41m33.12-25.97-7.15 50.41m-198.18-204.36-7.14 50.41m33.12-25.97-7.15 50.41m34.04-25.1-7.14 50.4m33.11-25.97-7.14 50.41m29.06-14.47-7.15 50.4m33.12-25.96-7.14 50.4m29.28-20.05-7.14 50.41m33.11-25.96-7.14 50.4"/><path d="m672.31 188.89c-26.109 21.93-1.89 40.78 24.061 33.97 24.76-6.49 54.81-14.67 56.89-38.38"/></g><path d="m0 0h850.394v850.394h-850.394z"/></g></svg>

<svg xmlns="http://www.w3.org/2000/svg" width="850.394" height="850.394" viewBox="0 0 850.394 850.394" overflow="visible"><g fill="#abda4d"><path d="M515.22 475.72c11.15 12.79 23.79 29.101 19.601 33.05-7.15 6.721-23.99 12.15-42.86 14.561-79.76 10.21-139.29 61.61-165.47 110.9 0 0-15.49 33.6-30.96 29.119-7.11-2.069-14.72-9.319-20.87-16.569l.01-.011c.26-47.649 52.88-100.92 94.05-125.68 49.429-29.75 87.709-45.19 146.499-45.37z"/><path d="M368.72 521.09c-41.17 24.76-93.79 78.03-94.05 125.68l-.01.011c-7.25-8.521-12.47-17.04-12.47-17.04L66.96 363.15s-18.21-18.78 15.47-59.36c33.93-40.89 111.91-88.49 164.29-98.58 0 0 28.87-10.36 63.69 33.61l81.36 94.54 45.52 52.91 63.01 73.22s7.09 7.25 14.92 16.229c-58.79.181-97.07 15.621-146.5 45.371z"/><path d="M773.38 200.81c23.21 21.85 27.97 54.34-10.13 66.65-38.09 12.32-188.09 56.01-236.9 75.05-48.819 19.05-87.14 42.11-87.14 42.11l-1.92 1.65-45.52-52.91 2.85-2.45s65.06-35.44 82.91-52.25c14.59-13.72 133.989-64.8 194.779-89.77-26.109 21.93-1.89 40.78 24.061 33.97 24.76-6.49 54.81-14.67 56.89-38.38l.641-.84c6.239 4.71 12.509 10.61 19.479 17.17z"/></g><g fill="none" stroke="#231f20" stroke-width="21"><path d="M274.66 646.78c-7.25-8.521-12.47-17.04-12.47-17.04L66.96 363.15s-18.21-18.78 15.47-59.36c33.93-40.89 111.91-88.49 164.29-98.58 0 0 28.87-10.36 63.69 33.61l81.36 94.54 45.52 52.91 63.01 73.22s7.09 7.25 14.92 16.229c11.15 12.79 23.79 29.101 19.601 33.05-7.15 6.721-23.99 12.15-42.86 14.561-79.76 10.21-139.29 61.61-165.47 110.9 0 0-15.49 33.6-30.96 29.119-7.111-2.069-14.721-9.319-20.871-16.569z"/><path d="M274.67 646.77c.26-47.649 52.88-100.92 94.05-125.68 49.43-29.75 87.709-45.189 146.5-45.37M394.62 330.91s65.06-35.44 82.91-52.25c14.59-13.72 133.989-64.8 194.779-89.77 13.641-5.61 24.341-9.9 30.23-12.16 22.49-8.62 36.82-4.08 51.36 6.91 6.239 4.71 12.51 10.61 19.479 17.17 23.21 21.85 27.97 54.34-10.13 66.65-38.09 12.32-188.09 56.01-236.9 75.05-48.819 19.05-87.14 42.11-87.14 42.11M256.24 224.25l-7.14 50.41M282.22 248.69l-7.14 50.41M309.11 274l-7.14 50.4M335.09 298.44l-7.15 50.4M357 334.37l-7.14 50.41M382.97 358.81l-7.14 50.4M405.11 389.17l-7.14 50.4M431.08 413.6l-7.14 50.41M208.27 241.31l-7.14 50.41M234.24 265.75l-7.14 50.41M261.14 291.06l-7.14 50.4M287.11 315.49l-7.14 50.41M309.03 351.43l-7.15 50.4M335 375.87l-7.14 50.4M357.14 406.22l-7.15 50.41M383.11 430.66l-7.14 50.41M172.06 275.38l-7.14 50.41M198.04 299.82l-7.15 50.4M224.93 325.12l-7.14 50.41M250.9 349.56l-7.14 50.41M272.82 385.49l-7.14 50.41M298.79 409.93l-7.14 50.41M320.93 440.29l-7.14 50.4M346.9 464.73l-7.14 50.41M123.57 294.16l-7.15 50.41M149.54 318.6L142.4 369M176.43 343.9l-7.14 50.41M202.41 368.34l-7.15 50.41M224.32 404.28l-7.14 50.4M250.29 428.71l-7.14 50.41M272.43 459.07l-7.14 50.41M298.41 483.51l-7.15 50.41M93.08 329.56l-7.14 50.41M119.06 354l-7.15 50.41M145.95 379.31l-7.14 50.4M171.92 403.74l-7.14 50.41M193.84 439.68l-7.15 50.4M219.81 464.12l-7.14 50.4M241.95 494.47l-7.14 50.41M267.92 518.92l-7.14 50.4"/><path d="M672.31 188.89c-26.109 21.93-1.89 40.78 24.061 33.97 24.76-6.49 54.81-14.67 56.89-38.38"/></g><path fill="none" d="M0 0h850.394v850.394H0z"/></svg>
